Newaita-dark/mimetypes/22/application-x-partial-download.svg

<?xml version="1.0" encoding="UTF-8"?>
<svg xmlns="http://www.w3.org/2000/svg" xmlns:xlink="http://www.w3.org/1999/xlink" width="22px" height="22px" viewBox="0 0 22 22" version="1.1">
<defs>
<linearGradient id="linear0" gradientUnits="userSpaceOnUse" x1="254" y1="233.5" x2="254" y2="254.666672" gradientTransform="matrix(0.0429729,0,0,0.0429729,0.454795,9.239165)">
<stop offset="0" style="stop-color:rgb(0%,0%,0%);stop-opacity:0.27451;"/>
<stop offset="1" style="stop-color:rgb(0%,0%,0%);stop-opacity:0;"/>
</linearGradient>
<radialGradient id="radial0" gradientUnits="userSpaceOnUse" cx="450.908936" cy="189.579361" fx="450.908936" fy="189.579361" r="21.166656" gradientTransform="matrix(0.000000119742,-0.0537161,-0.0966889,-0.0000000698078,34.020641,43.721791)">
<stop offset="0" style="stop-color:rgb(0%,0%,0%);stop-opacity:0.313726;"/>
<stop offset="0.222222" style="stop-color:rgb(0%,0%,0%);stop-opacity:0.27451;"/>
<stop offset="1" style="stop-color:rgb(0%,0%,0%);stop-opacity:0;"/>
</radialGradient>
<radialGradient id="radial1" gradientUnits="userSpaceOnUse" cx="450.908936" cy="189.579361" fx="450.908936" fy="189.579361" r="21.166656" gradientTransform="matrix(-0.000000119742,0.0537161,0.0966889,0.0000000698078,-12.645221,-5.175142)">
<stop offset="0" style="stop-color:rgb(0%,0%,0%);stop-opacity:0.313726;"/>
<stop offset="0.222222" style="stop-color:rgb(0%,0%,0%);stop-opacity:0.27451;"/>
<stop offset="1" style="stop-color:rgb(0%,0%,0%);stop-opacity:0;"/>
</radialGradient>
<radialGradient id="radial2" gradientUnits="userSpaceOnUse" cx="450.908936" cy="189.579361" fx="450.908936" fy="189.579361" r="21.166656" gradientTransform="matrix(-0.000000119742,-0.0537161,0.0966889,-0.0000000698078,-12.645221,43.721791)">
<stop offset="0" style="stop-color:rgb(0%,0%,0%);stop-opacity:0.313726;"/>
<stop offset="0.222222" style="stop-color:rgb(0%,0%,0%);stop-opacity:0.27451;"/>
<stop offset="1" style="stop-color:rgb(0%,0%,0%);stop-opacity:0;"/>
</radialGradient>
<radialGradient id="radial3" gradientUnits="userSpaceOnUse" cx="450.908936" cy="189.579361" fx="450.908936" fy="189.579361" r="21.166656" gradientTransform="matrix(0.000000119742,0.0537161,-0.0966889,0.0000000698078,34.02064,-5.175142)">
<stop offset="0" style="stop-color:rgb(0%,0%,0%);stop-opacity:0.313726;"/>
<stop offset="0.222222" style="stop-color:rgb(0%,0%,0%);stop-opacity:0.27451;"/>
<stop offset="1" style="stop-color:rgb(0%,0%,0%);stop-opacity:0;"/>
</radialGradient>
<linearGradient id="linear1" gradientUnits="userSpaceOnUse" x1="940" y1="1695.118164" x2="940" y2="175.118118" gradientTransform="matrix(0.0113699,0,0,0.0113699,0,0)">
<stop offset="0" style="stop-color:rgb(87.843138%,87.843138%,87.843138%);stop-opacity:1;"/>
<stop offset="1" style="stop-color:rgb(93.333334%,93.333334%,93.333334%);stop-opacity:1;"/>
</linearGradient>
<linearGradient id="linear2" gradientUnits="userSpaceOnUse" x1="960" y1="1695.118164" x2="960" y2="175.118118" gradientTransform="matrix(0.0113699,0,0,0.0113699,0,0)">
<stop offset="0" style="stop-color:rgb(69.01961%,74.509805%,77.254903%);stop-opacity:1;"/>
<stop offset="1" style="stop-color:rgb(81.176472%,84.705883%,86.274511%);stop-opacity:1;"/>
</linearGradient>
<linearGradient id="linear3" gradientUnits="userSpaceOnUse" x1="249.189392" y1="236.523804" x2="249.189423" y2="254.666687" gradientTransform="matrix(0.0205522,0,0,0.0752024,10.341666,-11.248126)">
<stop offset="0" style="stop-color:rgb(0%,0%,0%);stop-opacity:0.27451;"/>
<stop offset="1" style="stop-color:rgb(0%,0%,0%);stop-opacity:0;"/>
</linearGradient>
<linearGradient id="linear4" gradientUnits="userSpaceOnUse" x1="338.666656" y1="233.5" x2="338.666656" y2="-168.666672" gradientTransform="matrix(0.0429729,0,0,0.0429729,0,9.239163)">
<stop offset="0" style="stop-color:rgb(61.960787%,61.960787%,61.960787%);stop-opacity:1;"/>
<stop offset="1" style="stop-color:rgb(74.117649%,74.117649%,74.117649%);stop-opacity:1;"/>
</linearGradient>
</defs>
<g id="surface1">
<path style=" stroke:none;fill-rule:nonzero;fill:url(#linear0);" d="M 5.457031 19.273438 L 15.917969 19.273438 L 15.917969 20.183594 L 5.457031 20.183594 Z M 5.457031 19.273438 "/>
<path style=" stroke:none;fill-rule:nonzero;fill:url(#radial0);" d="M 15.917969 19.273438 L 17.738281 19.273438 L 17.738281 18.363281 L 15.917969 18.363281 Z M 15.917969 19.273438 "/>
<path style=" stroke:none;fill-rule:nonzero;fill:url(#radial1);" d="M 5.457031 19.273438 L 3.636719 19.273438 L 3.636719 20.183594 L 5.457031 20.183594 Z M 5.457031 19.273438 "/>
<path style=" stroke:none;fill-rule:nonzero;fill:url(#radial2);" d="M 5.457031 19.273438 L 3.636719 19.273438 L 3.636719 18.363281 L 5.457031 18.363281 Z M 5.457031 19.273438 "/>
<path style=" stroke:none;fill-rule:nonzero;fill:url(#radial3);" d="M 15.917969 19.273438 L 17.738281 19.273438 L 17.738281 20.183594 L 15.917969 20.183594 Z M 15.917969 19.273438 "/>
<path style=" stroke:none;fill-rule:nonzero;fill:url(#linear1);" d="M 4.546875 1.992188 C 4.042969 1.992188 3.636719 2.398438 3.636719 2.902344 L 3.636719 10.640625 L 6.636719 9.308594 C 6.699219 9.28125 6.765625 9.265625 6.832031 9.269531 C 6.890625 9.269531 6.949219 9.28125 7.007812 9.308594 L 10.890625 11.03125 L 13.875 9.328125 C 14 9.257812 14.152344 9.25 14.285156 9.308594 L 17.738281 10.84375 L 17.738281 6.980469 L 12.746094 1.992188 Z M 4.546875 1.992188 "/>
<path style=" stroke:none;fill-rule:nonzero;fill:url(#linear2);" d="M 6.820312 10.21875 L 3.636719 11.636719 L 3.636719 18.363281 C 3.636719 18.867188 4.042969 19.273438 4.546875 19.273438 L 16.828125 19.273438 C 17.332031 19.273438 17.738281 18.867188 17.738281 18.363281 L 17.738281 11.835938 L 14.125 10.230469 L 11.140625 11.9375 C 11.015625 12.007812 10.863281 12.015625 10.730469 11.957031 Z M 6.820312 10.21875 "/>
<path style=" stroke:none;fill-rule:nonzero;fill:url(#linear3);" d="M 12.734375 6.3125 L 17.054688 6.3125 L 17.738281 6.992188 L 17.738281 7.902344 L 12.734375 7.902344 Z M 12.734375 6.3125 "/>
<path style=" stroke:none;fill-rule:nonzero;fill:rgb(0%,0%,0%);fill-opacity:0.235294;" d="M 3.636719 18.011719 L 3.636719 18.363281 C 3.636719 18.867188 4.042969 19.273438 4.546875 19.273438 L 16.828125 19.273438 C 17.332031 19.273438 17.738281 18.867188 17.738281 18.363281 L 17.738281 18.011719 C 17.738281 18.515625 17.332031 18.921875 16.828125 18.921875 L 4.546875 18.921875 C 4.042969 18.921875 3.636719 18.515625 3.636719 18.011719 Z M 3.636719 18.011719 "/>
<path style=" stroke:none;fill-rule:nonzero;fill:rgb(100%,100%,100%);fill-opacity:0.784314;" d="M 4.546875 1.992188 C 4.042969 1.992188 3.636719 2.398438 3.636719 2.902344 L 3.636719 3.242188 C 3.636719 2.738281 4.042969 2.332031 4.546875 2.332031 L 12.746094 2.332031 L 17.738281 7.320312 L 17.738281 6.980469 L 12.746094 1.992188 Z M 4.546875 1.992188 "/>
<path style=" stroke:none;fill-rule:nonzero;fill:url(#linear4);" d="M 17.738281 6.980469 L 12.746094 1.992188 L 12.746094 6.070312 C 12.746094 6.574219 13.152344 6.980469 13.65625 6.980469 Z M 17.738281 6.980469 "/>
<path style=" stroke:none;fill-rule:nonzero;fill:rgb(0%,0%,0%);fill-opacity:0.235294;" d="M 12.746094 5.855469 L 12.746094 6.070312 C 12.746094 6.574219 13.152344 6.980469 13.65625 6.980469 L 17.738281 6.980469 L 17.523438 6.765625 L 13.65625 6.765625 C 13.152344 6.765625 12.746094 6.359375 12.746094 5.855469 Z M 12.746094 5.855469 "/>
<path style=" stroke:none;fill-rule:nonzero;fill:rgb(100%,100%,100%);fill-opacity:0.392157;" d="M 12.746094 1.992188 L 12.746094 2.332031 L 17.394531 6.980469 L 17.738281 6.980469 Z M 12.746094 1.992188 "/>
<path style=" stroke:none;fill-rule:nonzero;fill:rgb(12.941177%,12.941177%,12.941177%);fill-opacity:1;" d="M 12.746094 1.925781 C 12.710938 1.925781 12.683594 1.957031 12.683594 1.992188 L 12.683594 6.070312 C 12.683594 6.609375 13.117188 7.042969 13.65625 7.042969 L 17.738281 7.042969 C 17.761719 7.042969 17.785156 7.027344 17.796875 7.003906 C 17.804688 6.980469 17.800781 6.953125 17.78125 6.933594 L 12.792969 1.945312 C 12.78125 1.933594 12.765625 1.925781 12.746094 1.925781 Z M 12.8125 2.148438 L 17.582031 6.914062 L 13.65625 6.914062 C 13.1875 6.914062 12.8125 6.539062 12.8125 6.070312 Z M 12.8125 2.148438 "/>
<path style=" stroke:none;fill-rule:nonzero;fill:rgb(0%,0%,0%);fill-opacity:0.235294;" d="M 14.089844 8.980469 C 14.015625 8.984375 13.9375 9.003906 13.875 9.039062 L 10.890625 10.746094 L 7.007812 9.019531 C 6.949219 8.996094 6.890625 8.980469 6.832031 8.980469 C 6.765625 8.980469 6.699219 8.992188 6.636719 9.019531 L 3.636719 10.351562 L 3.636719 10.640625 L 6.636719 9.308594 C 6.699219 9.28125 6.765625 9.265625 6.832031 9.269531 C 6.890625 9.269531 6.949219 9.28125 7.007812 9.308594 L 10.890625 11.03125 L 13.875 9.328125 C 14 9.257812 14.152344 9.25 14.285156 9.308594 L 17.738281 10.84375 L 17.738281 10.554688 L 14.285156 9.019531 C 14.222656 8.992188 14.15625 8.980469 14.089844 8.980469 Z M 14.089844 8.980469 "/>
<path style=" stroke:none;fill-rule:nonzero;fill:rgb(100%,100%,100%);fill-opacity:0.392157;" d="M 6.820312 10.21875 L 3.636719 11.636719 L 3.636719 11.933594 L 6.820312 10.519531 L 10.730469 12.253906 C 10.863281 12.3125 11.015625 12.308594 11.140625 12.234375 L 14.125 10.53125 L 17.738281 12.136719 L 17.738281 11.835938 L 14.125 10.230469 L 11.140625 11.9375 C 11.015625 12.007812 10.863281 12.015625 10.730469 11.957031 Z M 6.820312 10.21875 "/>
<path style=" stroke:none;fill-rule:nonzero;fill:rgb(12.941177%,12.941177%,12.941177%);fill-opacity:1;" d="M 4.546875 1.925781 C 4.007812 1.925781 3.574219 2.363281 3.574219 2.902344 L 3.574219 10.640625 C 3.574219 10.660156 3.585938 10.683594 3.601562 10.695312 C 3.621094 10.707031 3.644531 10.707031 3.664062 10.699219 L 6.664062 9.367188 C 6.714844 9.34375 6.773438 9.332031 6.828125 9.332031 C 6.882812 9.332031 6.933594 9.34375 6.980469 9.367188 L 10.863281 11.09375 C 10.882812 11.101562 10.902344 11.097656 10.921875 11.089844 L 13.90625 9.382812 C 14.011719 9.324219 14.144531 9.316406 14.257812 9.367188 L 17.710938 10.902344 C 17.730469 10.910156 17.753906 10.910156 17.773438 10.894531 C 17.789062 10.882812 17.800781 10.863281 17.800781 10.84375 L 17.800781 6.980469 C 17.800781 6.964844 17.792969 6.945312 17.78125 6.933594 L 12.792969 1.945312 C 12.78125 1.933594 12.765625 1.925781 12.746094 1.925781 Z M 4.546875 2.054688 L 12.722656 2.054688 L 17.671875 7.007812 L 17.671875 10.742188 L 14.308594 9.25 C 14.160156 9.179688 13.984375 9.191406 13.839844 9.273438 L 10.886719 10.960938 L 7.03125 9.25 C 6.96875 9.21875 6.902344 9.207031 6.832031 9.203125 C 6.753906 9.203125 6.679688 9.21875 6.609375 9.25 L 3.703125 10.542969 L 3.703125 2.902344 C 3.703125 2.429688 4.078125 2.054688 4.546875 2.054688 Z M 6.824219 10.15625 C 6.8125 10.15625 6.804688 10.15625 6.796875 10.160156 L 3.613281 11.574219 C 3.589844 11.585938 3.574219 11.609375 3.574219 11.636719 L 3.574219 18.363281 C 3.574219 18.902344 4.007812 19.335938 4.546875 19.335938 L 16.828125 19.335938 C 17.367188 19.335938 17.800781 18.902344 17.800781 18.363281 L 17.800781 11.835938 C 17.800781 11.8125 17.785156 11.789062 17.761719 11.777344 L 14.152344 10.171875 C 14.132812 10.164062 14.109375 10.164062 14.09375 10.175781 L 11.109375 11.878906 C 11 11.941406 10.871094 11.949219 10.757812 11.898438 L 6.847656 10.160156 C 6.839844 10.15625 6.832031 10.15625 6.824219 10.15625 Z M 6.820312 10.289062 L 10.703125 12.015625 C 10.855469 12.082031 11.027344 12.074219 11.171875 11.992188 L 14.128906 10.304688 L 17.671875 11.878906 L 17.671875 18.363281 C 17.671875 18.832031 17.296875 19.207031 16.828125 19.207031 L 4.546875 19.207031 C 4.078125 19.207031 3.703125 18.832031 3.703125 18.363281 L 3.703125 11.675781 Z M 6.820312 10.289062 "/>
</g>
</svg>

<svg xmlns="http://www.w3.org/2000/svg" width="22pt" height="22pt" viewBox="0 0 22 22"><defs><linearGradient id="a" gradientUnits="userSpaceOnUse" x1="254" y1="233.5" x2="254" y2="254.667" gradientTransform="matrix(.04297 0 0 .04297 .455 9.24)"><stop offset="0" stop-opacity=".275"/><stop offset="1" stop-opacity="0"/></linearGradient><radialGradient id="b" gradientUnits="userSpaceOnUse" cx="450.909" cy="189.579" fx="450.909" fy="189.579" r="21.167" gradientTransform="matrix(0 -.05372 -.09669 0 34.02 43.722)"><stop offset="0" stop-opacity=".314"/><stop offset=".222" stop-opacity=".275"/><stop offset="1" stop-opacity="0"/></radialGradient><radialGradient id="c" gradientUnits="userSpaceOnUse" cx="450.909" cy="189.579" fx="450.909" fy="189.579" r="21.167" gradientTransform="matrix(0 .05372 .09669 0 -12.645 -5.175)"><stop offset="0" stop-opacity=".314"/><stop offset=".222" stop-opacity=".275"/><stop offset="1" stop-opacity="0"/></radialGradient><radialGradient id="d" gradientUnits="userSpaceOnUse" cx="450.909" cy="189.579" fx="450.909" fy="189.579" r="21.167" gradientTransform="matrix(0 -.05372 .09669 0 -12.645 43.722)"><stop offset="0" stop-opacity=".314"/><stop offset=".222" stop-opacity=".275"/><stop offset="1" stop-opacity="0"/></radialGradient><radialGradient id="e" gradientUnits="userSpaceOnUse" cx="450.909" cy="189.579" fx="450.909" fy="189.579" r="21.167" gradientTransform="matrix(0 .05372 -.09669 0 34.02 -5.175)"><stop offset="0" stop-opacity=".314"/><stop offset=".222" stop-opacity=".275"/><stop offset="1" stop-opacity="0"/></radialGradient><linearGradient id="f" gradientUnits="userSpaceOnUse" x1="940" y1="1695.118" x2="940" y2="175.118" gradientTransform="rotate(.24) scale(.01137)"><stop offset="0" stop-color="#e0e0e0"/><stop offset="1" stop-color="#eee"/></linearGradient><linearGradient id="g" gradientUnits="userSpaceOnUse" x1="960" y1="1695.118" x2="960" y2="175.118" gradientTransform="rotate(.24) scale(.01137)"><stop offset="0" stop-color="#b0bec5"/><stop offset="1" stop-color="#cfd8dc"/></linearGradient><linearGradient id="h" gradientUnits="userSpaceOnUse" x1="249.189" y1="236.524" x2="249.189" y2="254.667" gradientTransform="matrix(.02055 0 0 .0752 10.342 -11.248)"><stop offset="0" stop-opacity=".275"/><stop offset="1" stop-opacity="0"/></linearGradient><linearGradient id="i" gradientUnits="userSpaceOnUse" x1="338.667" y1="233.5" x2="338.667" y2="-168.667" gradientTransform="matrix(.04297 0 0 .04297 0 9.24)"><stop offset="0" stop-color="#9e9e9e"/><stop offset="1" stop-color="#bdbdbd"/></linearGradient></defs><path d="M5.457 19.273h10.461v.91H5.457zm0 0" fill="url(#a)"/><path d="M15.918 19.273h1.82v-.91h-1.82zm0 0" fill="url(#b)"/><path d="M5.457 19.273h-1.82v.91h1.82zm0 0" fill="url(#c)"/><path d="M5.457 19.273h-1.82v-.91h1.82zm0 0" fill="url(#d)"/><path d="M15.918 19.273h1.82v.91h-1.82zm0 0" fill="url(#e)"/><path d="M4.547 1.992a.909.909 0 0 0-.91.91v7.739l3-1.332a.427.427 0 0 1 .195-.04.41.41 0 0 1 .176.04l3.883 1.722 2.984-1.703a.46.46 0 0 1 .41-.02l3.453 1.536V6.98l-4.992-4.988zm0 0" fill="url(#f)"/><path d="M6.82 10.219l-3.183 1.418v6.726c0 .504.406.91.91.91h12.281c.504 0 .91-.406.91-.91v-6.527l-3.613-1.606-2.984 1.707a.46.46 0 0 1-.41.02zm0 0" fill="url(#g)"/><path d="M12.734 6.313h4.32l.684.68v.91h-5.004zm0 0" fill="url(#h)"/><path d="M3.637 18.012v.351c0 .504.406.91.91.91h12.281c.504 0 .91-.406.91-.91v-.351c0 .504-.406.91-.91.91H4.547a.909.909 0 0 1-.91-.91zm0 0" fill-opacity=".235"/><path d="M4.547 1.992a.909.909 0 0 0-.91.91v.34c0-.504.406-.91.91-.91h8.2l4.991 4.988v-.34l-4.992-4.988zm0 0" fill="#fff" fill-opacity=".784"/><path d="M17.738 6.98l-4.992-4.988V6.07c0 .504.406.91.91.91zm0 0" fill="url(#i)"/><path d="M12.746 5.855v.215c0 .504.406.91.91.91h4.082l-.215-.214h-3.867a.909.909 0 0 1-.91-.91zm0 0" fill-opacity=".235"/><path d="M12.746 1.992v.34l4.649 4.648h.343zm0 0" fill="#fff" fill-opacity=".392"/><path d="M12.746 1.926c-.035 0-.062.031-.062.066V6.07c0 .54.433.973.972.973h4.082a.068.068 0 0 0 .059-.04.068.068 0 0 0-.016-.07l-4.988-4.988a.065.065 0 0 0-.047-.02zm.066.222l4.77 4.766h-3.926a.84.84 0 0 1-.844-.844zm0 0" fill="#212121"/><path d="M14.09 8.98a.504.504 0 0 0-.215.06l-2.984 1.706L7.008 9.02a.476.476 0 0 0-.176-.04.485.485 0 0 0-.195.04l-3 1.332v.289l3-1.332a.427.427 0 0 1 .195-.04.41.41 0 0 1 .176.04l3.883 1.722 2.984-1.703a.46.46 0 0 1 .41-.02l3.453 1.536v-.29L14.285 9.02a.485.485 0 0 0-.195-.04zm0 0" fill-opacity=".235"/><path d="M6.82 10.219l-3.183 1.418v.297L6.82 10.52l3.91 1.734a.447.447 0 0 0 .41-.02l2.985-1.703 3.613 1.606v-.301l-3.613-1.606-2.984 1.707a.46.46 0 0 1-.41.02zm0 0" fill="#fff" fill-opacity=".392"/><path d="M4.547 1.926a.974.974 0 0 0-.973.976v7.739c0 .02.012.043.028.054a.07.07 0 0 0 .062.004l3-1.332a.4.4 0 0 1 .164-.035c.055 0 .106.012.152.035l3.883 1.727c.02.008.04.004.059-.004l2.984-1.707a.397.397 0 0 1 .352-.016l3.453 1.535c.02.008.043.008.062-.007a.067.067 0 0 0 .028-.051V6.98a.072.072 0 0 0-.02-.046l-4.988-4.989a.065.065 0 0 0-.047-.02zm0 .129h8.176l4.949 4.953v3.734L14.309 9.25a.51.51 0 0 0-.47.023l-2.952 1.688L7.03 9.25a.497.497 0 0 0-.422 0l-2.906 1.293v-7.64c0-.473.375-.848.844-.848zm2.277 8.101c-.011 0-.02 0-.027.004l-3.184 1.414a.07.07 0 0 0-.039.063v6.726c0 .54.434.973.973.973h12.281a.97.97 0 0 0 .973-.973v-6.527a.068.068 0 0 0-.04-.059l-3.609-1.605c-.02-.008-.043-.008-.058.004l-2.985 1.703a.386.386 0 0 1-.351.02l-3.91-1.739c-.008-.004-.016-.004-.024-.004zm-.004.133l3.883 1.727a.522.522 0 0 0 .469-.024l2.957-1.687 3.543 1.574v6.484a.84.84 0 0 1-.844.844H4.547a.84.84 0 0 1-.844-.844v-6.687zm0 0" fill="#212121"/></svg>
